src/pos-icons/chemical-weapon.svg

<svg height="24" viewBox="0 0 24 24" width="24" xmlns="http://www.w3.org/2000/svg"><path d="m11 7.83c-1.17-.41-2-1.53-2-2.83a3 3 0 0 1 3-3 3 3 0 0 1 3 3c0 1.31-.84 2.42-2 2.83v2.81c-.32-.09-.65-.14-1-.14s-.68.05-1 .14zm7.3 13.27c-1.14-.65-1.68-1.92-1.46-3.14l-2.44-1.41c.48-.46.84-1.05 1-1.73l2.44 1.41c.94-.81 2.32-.97 3.45-.32 1.44.83 1.93 2.66 1.1 4.09-.83 1.44-2.66 1.93-4.09 1.1m-15.6-5.2c1.13-.65 2.51-.48 3.45.32l2.45-1.41c.16.69.51 1.27 1 1.73l-2.45 1.41c.23 1.22-.32 2.5-1.45 3.15-1.44.83-3.27.34-4.1-1.1-.83-1.43-.34-3.27 1.1-4.1m11.3-1.9a2 2 0 0 1 -2 2c-1.11 0-2-.9-2-2a2 2 0 0 1 2-2c1.11 0 2 .9 2 2m3 0-.03.57-1.47-.86c-.1-1.07-.67-2-1.5-2.59v-1.71c1.77.78 3 2.54 3 4.59m-2.03 4.03c-.83.61-1.86.97-2.97.97s-2.14-.36-2.97-1l1.47-.83c.46.21.97.33 1.5.33s1.03-.12 1.5-.33zm-7.94-3.47-.03-.56c0-2.05 1.23-3.81 3-4.58v1.71c-.83.58-1.4 1.51-1.5 2.57z"/></svg>

<?xml version="1.0" encoding="UTF-8"?><!DOCTYPE svg PUBLIC "-//W3C//DTD SVG 1.1//EN" "http://www.w3.org/Graphics/SVG/1.1/DTD/svg11.dtd"><svg xmlns="http://www.w3.org/2000/svg" xmlns:xlink="http://www.w3.org/1999/xlink" version="1.1" id="mdi-chemical-weapon" width="24" height="24" viewBox="0 0 24 24"><path d="M11,7.83C9.83,7.42 9,6.3 9,5A3,3 0 0,1 12,2A3,3 0 0,1 15,5C15,6.31 14.16,7.42 13,7.83V10.64C12.68,10.55 12.35,10.5 12,10.5C11.65,10.5 11.32,10.55 11,10.64V7.83M18.3,21.1C17.16,20.45 16.62,19.18 16.84,17.96L14.4,16.55C14.88,16.09 15.24,15.5 15.4,14.82L17.84,16.23C18.78,15.42 20.16,15.26 21.29,15.91C22.73,16.74 23.22,18.57 22.39,20C21.56,21.44 19.73,21.93 18.3,21.1M2.7,15.9C3.83,15.25 5.21,15.42 6.15,16.22L8.6,14.81C8.76,15.5 9.11,16.08 9.6,16.54L7.15,17.95C7.38,19.17 6.83,20.45 5.7,21.1C4.26,21.93 2.43,21.44 1.6,20C0.77,18.57 1.26,16.73 2.7,15.9M14,14A2,2 0 0,1 12,16C10.89,16 10,15.1 10,14A2,2 0 0,1 12,12C13.11,12 14,12.9 14,14M17,14L16.97,14.57L15.5,13.71C15.4,12.64 14.83,11.71 14,11.12V9.41C15.77,10.19 17,11.95 17,14M14.97,18.03C14.14,18.64 13.11,19 12,19C10.89,19 9.86,18.64 9.03,18L10.5,17.17C10.96,17.38 11.47,17.5 12,17.5C12.53,17.5 13.03,17.38 13.5,17.17L14.97,18.03M7.03,14.56L7,14C7,11.95 8.23,10.19 10,9.42V11.13C9.17,11.71 8.6,12.64 8.5,13.7L7.03,14.56Z" /></svg>
